assets/icons/bowtie/file-content.svg

<svg xmlns="http://www.w3.org/2000/svg" viewBox="0 0 448 448" enable-background="new 0 0 448 448"><path d="M262.625 0h-230.625v448h352v-326.625l-121.375-121.375zm-6.625 38.625l89.375 89.375h-89.375v-89.375zm96 377.375h-288v-384h160v128h128v256zm-64-192h-160v-32h160v32zm0 64h-160v-32h160v32zm-64 64h-96v-32h96v32zm-32-192h-64v-32h64v32z"/></svg>

<?xml version="1.0" encoding="utf-8"?>
<!-- Generator: Adobe Illustrator 19.1.0, SVG Export Plug-In . SVG Version: 6.00 Build 0)  -->
<svg version="1.1" xmlns="http://www.w3.org/2000/svg" xmlns:xlink="http://www.w3.org/1999/xlink" x="0px" y="0px"
	 viewBox="0 0 448 448" style="enable-background:new 0 0 448 448;" xml:space="preserve">
<path d="M262.625,0H32v448h352V121.375L262.625,0z M256,38.625L345.375,128H256V38.625z M352,416H64V32h160v128h128V416z M288,224
	H128v-32h160V224z M288,288H128v-32h160V288z M224,352h-96v-32h96V352z M192,160h-64v-32h64V160z"/>
<g>
</g>
<g>
</g>
<g>
</g>
<g>
</g>
<g>
</g>
<g>
</g>
</svg>
